build/images/g9.svg

<svg width="138" height="138" viewBox="0 0 138 138" fill="none" xmlns="http://www.w3.org/2000/svg">
<circle cx="69" cy="69" r="69" fill="#76BD5E"/>
<g clip-path="url(#clip0)">
<path d="M86.5147 72.2303L92.4966 66.285C93.68 66.4783 94.8796 66.5267 96.0792 66.43C96.8087 66.3655 97.3274 65.7049 97.1978 64.9799C97.0843 64.3515 96.5007 63.9326 95.8685 63.981C94.7013 64.0776 93.5179 64.0132 92.3669 63.7554C91.9616 63.6587 91.5239 63.7876 91.2321 64.0776L84.7802 70.4902L76.6585 62.4181L83.1104 56.0056C83.4022 55.7156 83.5319 55.2805 83.4347 54.8777C82.5755 50.9948 83.7589 46.999 86.5796 44.1794C88.9788 41.7948 92.3183 40.5864 95.6577 40.812L88.1034 48.3202C87.7954 48.6263 87.6819 49.0613 87.7792 49.4802L89.5624 56.7628C89.6759 57.214 90.0163 57.5523 90.4702 57.6651L97.7976 59.4374C98.219 59.5341 98.6567 59.4213 98.9647 59.1152L106.519 51.607C106.746 54.9261 105.53 58.2451 103.131 60.6297C102.434 61.3225 101.64 61.9348 100.797 62.4181C100.245 62.7404 100.051 63.4171 100.31 63.981C100.618 64.6416 101.429 64.8832 102.061 64.5127C103.082 63.9165 104.023 63.1915 104.866 62.3537C108.432 58.809 109.842 53.5888 108.529 48.7391C108.416 48.3202 108.075 47.9818 107.654 47.869C107.232 47.7563 106.778 47.869 106.47 48.1913L97.7165 56.8917L91.7833 55.4578L90.3405 49.5608L99.0944 40.8603C99.4024 40.5542 99.5321 40.1031 99.4186 39.6842C99.3052 39.2653 98.9647 38.9269 98.5433 38.8141C93.6638 37.5091 88.4114 38.9108 84.845 42.4554C81.5866 45.6939 80.1276 50.2375 80.9058 54.7327L74.9239 60.678L73.9837 59.7435C73.2056 58.9702 72.0384 58.8413 71.1144 59.3246L67.1265 55.3611L67.2886 55.2C67.9532 54.5394 68.3909 53.6532 68.4395 52.7187C68.5044 51.6392 68.1153 50.6081 67.3372 49.8347L67.0616 49.5608C70.0606 45.0172 77.08 38.6852 83.5806 35.8173C84.0831 35.5917 84.3911 35.0601 84.2938 34.4961C84.229 34.1417 84.002 33.8194 83.6778 33.6422C75.9614 29.147 66.089 30.4843 59.6532 36.8807L56.9784 39.5392L56.946 39.5069C56.2327 38.798 55.2763 38.4113 54.2874 38.4113C53.2823 38.4113 52.3421 38.798 51.6288 39.5069L40.2163 50.8175C39.73 51.3009 39.7462 52.0581 40.2163 52.5415C40.3784 52.7026 40.5081 52.8799 40.6054 53.0732C41.2376 54.3138 40.7351 56.1345 39.4382 57.4234C38.1413 58.7124 36.3743 59.1957 35.1099 58.5996C34.8991 58.5029 34.6884 58.3579 34.5263 58.1968C34.0399 57.7295 33.2618 57.7134 32.7755 58.1968L26.356 64.5932C25.8696 65.0766 25.8696 65.85 26.356 66.3172L40.3298 80.2057C40.4433 80.3185 40.5892 80.4313 40.7513 80.4957C41.2376 80.689 41.7563 80.5602 42.0968 80.2218L48.5163 73.8415C48.9864 73.3742 49.0026 72.6009 48.5325 72.1175C48.3704 71.9564 48.2407 71.763 48.1272 71.5536C47.5112 70.2968 47.9976 68.5245 49.2944 67.2195C50.5913 65.9305 52.4231 65.4472 53.6714 66.0594C53.8821 66.1561 54.0605 66.285 54.2226 66.4461C54.7089 66.9133 55.4708 66.8972 55.9571 66.43L57.8214 64.5771L61.8093 68.5406C61.3229 69.459 61.4688 70.6191 62.2308 71.3925L63.171 72.327L49.878 85.5387C49.3917 86.0221 49.3917 86.7955 49.878 87.2627C50.3644 87.7461 51.1425 87.7461 51.6126 87.2627L64.095 74.8565L64.9056 74.0509L66.0079 75.1465L56.8163 84.282C55.6491 85.4421 55.6491 87.3272 56.8163 88.4872L58.5022 90.1629C59.0858 90.7429 59.8478 91.0329 60.6097 91.0329C61.3716 91.0329 62.1335 90.7429 62.7171 90.1629L71.9087 81.0274L73.011 82.123L52.1962 102.891C49.9429 105.131 46.2954 105.131 44.0583 102.907C42.9722 101.828 42.3724 100.394 42.3724 98.8633C42.3724 97.3327 42.9722 95.8987 44.0583 94.8192L47.5599 91.339C48.0462 90.8557 48.0462 90.0823 47.5599 89.6151C47.0735 89.1317 46.2954 89.1317 45.8253 89.6151L42.3237 93.0952C40.7675 94.642 39.9083 96.6882 39.9083 98.8633C39.9083 101.038 40.7675 103.101 42.3075 104.631C43.9124 106.226 46.0036 107.016 48.111 107.016C50.2185 107.016 52.3259 106.21 53.9308 104.631L74.778 83.9114L94.6526 103.665C96.3062 105.308 98.4784 106.13 100.651 106.13C102.709 106.13 104.752 105.389 106.325 103.89C107.962 102.343 108.87 100.265 108.886 98.0255C108.918 95.7859 108.043 93.6753 106.454 92.0963L86.5147 72.2303ZM61.3878 38.6047C66.4618 33.5778 73.9513 32.1116 80.306 34.7056C74.1782 38.0085 68.2612 43.5349 65.2946 47.8046L58.713 41.2631L61.3878 38.6047ZM41.2214 77.6439L28.9659 65.4633L33.6347 60.823L45.8901 73.0037L41.2214 77.6439ZM47.5599 65.5116C46.5062 66.5589 45.8091 67.8639 45.5335 69.169L37.5091 61.1936C38.8222 60.9197 40.1028 60.243 41.1728 59.1796C42.3399 58.0196 43.0532 56.5695 43.264 55.1194L51.6288 63.4332C50.186 63.6426 48.7271 64.3515 47.5599 65.5116ZM55.3087 63.6265L43.0694 51.462L53.3634 41.2309C53.6065 40.9892 53.9308 40.8442 54.2874 40.8442C54.6278 40.8442 54.9683 40.9731 55.2114 41.2309L56.1192 42.1332L65.6188 51.5748C65.862 51.8165 66.0079 52.1387 66.0079 52.4932C66.0079 52.8315 65.8782 53.1699 65.6188 53.4115L55.3087 63.6265ZM59.556 62.8692L65.3757 57.0851L69.2825 60.968L66.3808 63.8682L63.479 66.7683L59.556 62.8692ZM60.9987 88.455C60.788 88.6645 60.4638 88.6645 60.253 88.455L58.5671 86.7794C58.3563 86.5699 58.3563 86.2477 58.5671 86.0382L67.7587 76.9027L70.1903 79.3195L60.9987 88.455ZM104.655 102.102C102.385 104.261 98.6892 104.164 96.4034 101.908L63.9978 69.7007L72.2491 61.4997L104.752 93.8042C105.871 94.9159 106.47 96.3982 106.454 97.9771C106.438 99.5561 105.79 101.022 104.655 102.102Z" fill="white"/>
</g>
<defs>
<clipPath id="clip0">
<rect width="83" height="76" fill="white" transform="translate(26 31)"/>
</clipPath>
</defs>
</svg>

<svg width="138" height="138" fill="none" xmlns="http://www.w3.org/2000/svg"><circle cx="69" cy="69" r="69" fill="#76BD5E"/><g clip-path="url(#clip0)"><path d="M86.515 72.23l5.982-5.945a14.81 14.81 0 003.582.145 1.235 1.235 0 001.119-1.45c-.114-.629-.697-1.047-1.33-.999-1.167.097-2.35.032-3.501-.226a1.227 1.227 0 00-1.135.323L84.78 70.49l-8.121-8.072 6.451-6.412a1.21 1.21 0 00.325-1.128c-.86-3.883.324-7.879 3.145-10.699 2.399-2.384 5.738-3.593 9.078-3.367l-7.555 7.508a1.228 1.228 0 00-.324 1.16l1.783 7.283c.114.451.454.79.908.902l7.328 1.772c.421.097.859-.016 1.167-.322l7.554-7.508a11.632 11.632 0 01-3.388 9.023 11.345 11.345 0 01-2.334 1.788 1.214 1.214 0 00-.487 1.563c.308.66 1.119.902 1.751.532a13.977 13.977 0 002.805-2.16c3.566-3.544 4.976-8.764 3.663-13.614a1.25 1.25 0 00-.875-.87 1.2 1.2 0 00-1.184.322l-8.754 8.7-5.933-1.433-1.442-5.897 8.753-8.7c.308-.307.438-.758.325-1.177a1.25 1.25 0 00-.876-.87c-4.88-1.305-10.132.097-13.698 3.641-3.258 3.239-4.717 7.782-3.94 12.278l-5.981 5.945-.94-.934a2.453 2.453 0 00-2.87-.42l-3.988-3.963.163-.161c.664-.66 1.102-1.547 1.15-2.481a3.712 3.712 0 00-1.102-2.884l-.275-.274C70.06 45.017 77.08 38.685 83.58 35.817a1.22 1.22 0 00.713-1.32 1.236 1.236 0 00-.616-.855c-7.717-4.495-17.589-3.158-24.025 3.239l-2.675 2.658-.032-.032a3.767 3.767 0 00-2.659-1.096 3.739 3.739 0 00-2.658 1.096l-11.413 11.31c-.486.484-.47 1.241 0 1.724.162.162.292.339.39.532.632 1.24.13 3.062-1.168 4.35-1.297 1.29-3.064 1.773-4.328 1.177a2.093 2.093 0 01-.584-.403 1.253 1.253 0 00-1.75 0l-6.42 6.396a1.2 1.2 0 000 1.724L40.33 80.206c.113.112.26.225.421.29a1.245 1.245 0 001.346-.274l6.42-6.38a1.23 1.23 0 00.015-1.724 2.388 2.388 0 01-.405-.564c-.616-1.257-.13-3.03 1.167-4.335 1.297-1.288 3.13-1.772 4.377-1.16.211.097.39.226.552.387a1.249 1.249 0 001.734-.016l1.864-1.853 3.988 3.964a2.44 2.44 0 00.422 2.852l.94.934-13.293 13.212a1.201 1.201 0 000 1.724 1.219 1.219 0 001.735 0l12.482-12.407.81-.805 1.103 1.096-9.192 9.135a2.963 2.963 0 000 4.205l1.686 1.676a2.98 2.98 0 002.108.87 2.98 2.98 0 002.107-.87l9.192-9.136 1.102 1.096-20.815 20.768c-2.253 2.24-5.9 2.24-8.138.016a5.66 5.66 0 01-1.686-4.044c0-1.53.6-2.964 1.686-4.044l3.502-3.48a1.2 1.2 0 000-1.724 1.219 1.219 0 00-1.735 0l-3.501 3.48a8.082 8.082 0 00-2.416 5.768c0 2.175.86 4.238 2.4 5.768a8.186 8.186 0 005.803 2.385 8.291 8.291 0 005.82-2.385l20.847-20.72 19.875 19.754a8.485 8.485 0 005.998 2.465c2.058 0 4.101-.741 5.674-2.24a8.075 8.075 0 002.561-5.865 8.15 8.15 0 00-2.432-5.929L86.514 72.23zM61.388 38.605c5.074-5.027 12.563-6.493 18.918-3.9-6.128 3.303-12.045 8.83-15.011 13.1l-6.582-6.542 2.675-2.658zM41.22 77.644l-12.255-12.18 4.669-4.641 12.255 12.18-4.669 4.64zm6.339-12.132c-1.054 1.047-1.75 2.352-2.027 3.657l-8.024-7.975c1.313-.274 2.594-.951 3.664-2.014 1.167-1.16 1.88-2.61 2.091-4.06l8.365 8.313c-1.443.21-2.902.919-4.07 2.079zm7.749-1.886l-12.24-12.164 10.294-10.231c.243-.242.568-.387.924-.387.34 0 .681.13.924.387l.908.902 9.5 9.442c.243.241.389.564.389.918 0 .338-.13.677-.39.918l-10.31 10.215zm4.247-.757l5.82-5.784 3.906 3.883-2.901 2.9-2.902 2.9-3.923-3.899zm1.443 25.586a.52.52 0 01-.746 0l-1.686-1.676a.513.513 0 010-.74l9.192-9.136 2.431 2.416L61 88.456zm43.656 13.647c-2.27 2.159-5.966 2.062-8.252-.194L63.998 69.701l8.251-8.201 32.503 32.304a5.746 5.746 0 011.702 4.173 5.74 5.74 0 01-1.799 4.125z" fill="#fff"/></g><defs><clipPath id="clip0"><path fill="#fff" transform="translate(26 31)" d="M0 0h83v76H0z"/></clipPath></defs></svg>
